X: 95
T: 95. Werde munter, mein Gem\"ute
N: Derived from chor095.krn
C: Johann Sebastian Bach
%%abc-version 2.0
%%abcx-abcm2ps-target-version 5.9.1 (29 Sep 2008)
%%abc-creator hum2abc beta
%%abcx-conversion-date 2019/03/11 17:28:18
%%abc-edited-by Craig Stuart Sapp
%%humdrum-veritas 2852581166
%%humdrum-veritas-data 931296440
%%
%%barnumbers 0
L: 1/4
M: C
%%staves [1 2 3 4]
V: 1 clef=treble
V: 2 clef=treble
V: 3 clef=treble-8
V: 4 clef=bass
K: Bb
[V:1] deff | 
[V:2] FG/A/BB | 
[V:3] BBB/c/d | 
[V:4] B,/A,/G,D,G, | 
[V:1] edc!fermata!c | 
[V:2] B/A/BA!fermata!A | 
[V:3] eff!fermata!f | 
[V:4] C,D,/E,/F,!fermata!F, | 
[V:1] defe/d/ | 
[V:2] BA/G/FG | 
[V:3] fcc/A/B | 
[V:4] B,,C,D,G,/F,/ | 
[V:1] c3/B/!fermata!B2 :|]  
[V:2] GF!fermata!F2 :|]  
[V:3] BA!fermata!d2 :|]  
[V:4] E,F,!fermata!B,,2 :|]  
[V:1] cdee | 
[V:2] FFE/F/G | 
[V:3] A=Bcc | 
[V:4] F,/E,/D,C,/D,/E,/C,/ | 
[V:1] dd!fermata!c2 | 
[V:2] _AG/F/!fermata!E2 | 
[V:3] c=B!fermata!G2 | 
[V:4] F,G,!fermata!C,2 | 
[V:1] efgg | 
[V:2] GBB/_A/ B/G/ | 
[V:3] cdee | 
[V:4] CB,/_A,/ G,/F,/E, | 
[V:1] ff!fermata!e2 | 
[V:2] cB/_A/!fermata!G2 | 
[V:3] ed!fermata!B2 | 
[V:4] _A,B,!fermata!E,2 | 
[V:1] deff | 
[V:2] GGF/E/D | 
[V:3] BBBB | 
[V:4] G,F,/E,/D,G, | 
[V:1] edc!fermata!c | 
[V:2] EF/G/A!fermata!A | 
[V:3] B/A/Bf!fermata!f | 
[V:4] C,D,/E,/F,!fermata!F, | 
[V:1] defe/d/ | 
[V:2] BA/G/FG | 
[V:3] fed/c/B | 
[V:4] B,,C,D,G,/F,/ | 
[V:1] c3/B/B!fermata!B |]  
[V:2] GFF!fermata!F |]  
[V:3] BA/e/d!fermata!d |]  
[V:4] E,F,B,,!fermata!B,, |]  



